assets/images/item_789.svg

<?xml version="1.0" standalone="no"?><!DOCTYPE svg PUBLIC "-//W3C//DTD SVG 1.1//EN" "http://www.w3.org/Graphics/SVG/1.1/DTD/svg11.dtd"><svg xmlns="http://www.w3.org/2000/svg" version="1.1" width="1008px" height="584px" viewBox="0 -17 1008 584" style="top:-17px"><desc>Unfix Your Thinking</desc><defs/><g id="Polygon13103"><path d="m23.3 408.6l11.4-4.4v-75.7H23.1L6.8 348.3H1.2l1.5-26.9h85.7l1.5 26.9h-5.6l-16.2-19.8H56.4V406l11.4 2.1v6.3H23.3v-5.8zm69.7 0l9.5-3.6v-70.6l-9.3-4.3V326l27.9-6.1v40.7s11.95-10.92 12-10.9c2.4-.8 5.2-1.3 8-1.3c9.9 0 20.1 6 20.1 21.9v36.2l9.5 1.6v6.3h-36V408l7.9-3v-30.5c0-8.5-3.8-12-8.7-12c-4.1 0-8.8 2.4-12.8 6.5c.05.02 0 37.5 0 37.5l8 1.3v6.6H93v-5.8zm88-80.4c0-7.3 5.1-12.1 12.4-12.1c7.4 0 12.4 4.8 12.4 12.1c0 7.3-5 12.2-12.4 12.2c-7.3 0-12.4-4.9-12.4-12.2zm-5.3 80.4l9.6-3.6v-42.1l-9.3-4.3v-4.1l27.9-6.1v58.1l9.5 1.6v6.3h-37.7v-5.8zm42.7 0l9.5-3.6v-42.5l-9.3-4.4V354l25.7-5.6v14.2l14.1-12.9c2.5-.8 5.2-1.3 8.1-1.3c9.9 0 20.1 6 20.1 21.9c-.04-.04 0 36.2 0 36.2l9.5 1.6v6.3H260V408l8-3s-.04-30.52 0-30.5c0-8.5-3.9-12-8.7-12c-4.1 0-8.8 2.4-12.8 6.5v37.5l7.9 1.3v6.6h-36v-5.8zm80.8 0l9.6-3.6v-70.6l-9.3-4.3V326l27.9-6.1v86.6l9.5 1.6v6.3h-37.7v-5.8zm53.1 5.8l-24.8-33.6l24.3-22.8l-10.7-2.5v-5.8H373v6.6l-9.4 1.6l-17.4 16.5l26.8 34.2v5.8h-20.7zm30.4-86.2c0-7.3 5-12.1 12.4-12.1c7.3 0 12.4 4.8 12.4 12.1c0 7.3-5.1 12.2-12.4 12.2c-7.4 0-12.4-4.9-12.4-12.2zm-5.4 80.4l9.6-3.6v-42.1l-9.3-4.3v-4.1l27.9-6.1v58.1l9.5 1.6v6.3h-37.7v-5.8zm42.7 0l9.5-3.6v-42.5l-9.3-4.4V354l25.7-5.6v14.2l14.1-12.9c2.5-.8 5.2-1.3 8.1-1.3c9.9 0 20.1 6 20.1 21.9c-.02-.04 0 36.2 0 36.2l9.5 1.6v6.3h-36.1V408l8-3s-.02-30.52 0-30.5c0-8.5-3.9-12-8.7-12c-4.1 0-8.8 2.4-12.8 6.5c.03.02 0 37.5 0 37.5l8 1.3v6.6H420v-5.8zm136.9-50.4c4.1 4.7 6.3 10.6 6.3 15.8c0 13-13.6 21.1-28.1 21.1c-4.3 0-8.4-.8-12-1.9c-2.9 1.1-4.3 3.5-4.3 6c0 3.1 2.4 6 6.8 6h26.9c13.1 0 19.9 8.1 19.9 17.5c0 16.3-20.1 23.7-39.7 23.7c-18.7 0-30.6-6.8-30.6-15.4c0-1.5.3-3 1-4.4l14.3-9c-7.8-2.2-11.5-8-11.5-13.7c0-5.9 4.1-11.7 12.2-13.2c-6.7-3.9-11.2-10.4-11.2-18.9c0-13.6 11-23.4 26.7-23.4c3.4 0 6.5.5 9.4 1.3c-.01-.02 29.4 0 29.4 0v9.7s-15.52-1.17-15.5-1.2zM545 372.7c0-8.9-2.9-17.6-10.4-17.6c-7.4 0-9.5 8.1-9.5 15.4c0 8.9 3.1 17.4 10.7 17.4c7.3 0 9.2-7.8 9.2-15.2zm-26.6 56c0 4.9 4.3 10 16.5 10c11.2 0 20.7-4.2 20.7-11.3c0-4.3-3.6-7.4-10.6-7.4h-22.3c-2.5 2.3-4.3 5.6-4.3 8.7zm70.5-36c6.4 0 11.1 4.7 11.1 11.2c0 6.4-4.7 11.1-11.1 11.1c-6.2 0-10.9-4.7-10.9-11.1c0-6.5 4.7-11.2 10.9-11.2z" stroke="none" fill="#000"/></g><g id="Polygon13102"><path d="m29.3 259.8l11.4-4.4v-23.6l-29.9-48.7l-10.2-4.2v-6.3h45.7v6.8l-12.7 2l20.7 40.7l19.7-39l-12.6-4.2v-6.3h34.2v6.8l-10.2 2l-23 46.3v29.5l11.4 2.1v6.3H29.3v-5.8zM152.6 233c0 19.1-12.4 34.1-33.6 34.1c-21.3 0-32.7-15.3-32.7-33.6c0-19 12.3-33.9 33.6-33.9c21.2 0 32.7 14.9 32.7 33.4zm-21 2.2c0-17.5-4.4-28.9-12.9-28.9c-7.6 0-11.3 9-11.3 25.1c0 17.5 4.3 29 12.9 29c7.5 0 11.3-9.1 11.3-25.2zm91.7 17.3l8.8 1.6v5.7l-25.1 7.3V253s-14.18 12.85-14.2 12.9c-1.5.7-3.5 1.2-5.8 1.2c-8.3 0-19.8-5.8-19.8-22.6c-.05.03 0-34.4 0-34.4l-9.6-3.1v-6.1h28.2s-.05 39.41 0 39.4c0 8.1 4 11.7 8.8 11.7c3.6 0 7.4-2.1 10.1-5.7c.02-.04 0-36.2 0-36.2l-9.4-3.1v-6.1h28v51.6zm13.2 7.3l9.5-3.6v-42.5l-9.3-4.4v-4.1l25.7-5.6v16.3s14.86-15.64 14.9-15.6c4.4 0 10.4 1 14 2.9l-4.9 18.5c-3.2-2.1-6.8-3.2-10.4-3.2c-4.2 0-8.2 1.4-11.4 3.7v35.5l9.6 1.6v6.3h-37.7v-5.8z" stroke="none" fill="#000"/></g><g id="Polygon13101"><path d="m12.6 81c.05-.03 0-48.8 0-48.8L1.2 30.1v-6.3h44.6v5.8L34.3 34s.05 51.06 0 51.1c0 17.1 11.1 24.8 22.4 24.8c11.3 0 23.4-7.8 23.4-22.1V32.2l-11.4-2.1v-6.3h33.1v5.8L90.4 34v50.7c0 22.7-18.5 34.5-37.6 34.5c-19.9 0-40.2-12.6-40.2-38.2zm92.3 30l9.6-3.6V64.9l-9.3-4.4v-4.1l25.6-5.6V65s14.16-12.92 14.2-12.9c2.4-.8 5.2-1.3 8-1.3c9.9 0 20.1 6 20.1 21.9v36.2l9.6 1.6v6.3h-36.1v-6.4l7.9-3V76.9c0-8.5-3.8-12-8.7-12c-4.1 0-8.8 2.4-12.7 6.5c-.05.02 0 37.5 0 37.5l7.9 1.3v6.6h-36.1V111zm127.8 5.8V111l8.4-3.6v-47h-24v48.5l9.6 1.6v6.3H189V111l9.5-3.6V59.8h-12.7v-6l12.7-3.8s.02-5.73 0-5.7c0-17.8 14-25.7 29.5-25.7c8 0 16.2 2.1 23.2 6l-5.7 16.8s-7.42.01-7.4 0c-.3-10.9-5.7-15.9-10.9-15.9c-5.1 0-10.1 4.9-10.1 13.7c.02-.02 0 12.9 0 12.9h42.6v56.8l9.5 1.6v6.3h-36.5zm118.2-5.6v5.6H313v-6.1l8-1.3l-14-17.1l-12.9 15.7l9.7 3.2v5.6h-31.1v-6.1l9.4-1.6l19.8-23.2l-20-24.6l-9.6-3.6v-5.6H310v6.2l-7.9 1.2l13.7 16.9l12.3-15l-9.4-3.4v-5.9h30.9v6.1l-9.5 1.6L321 82.7l20.4 24.9l9.5 3.6z" stroke="none" fill="#000"/></g></svg>

<?xml version="1.0" standalone="no"?><!DOCTYPE svg PUBLIC "-//W3C//DTD SVG 1.1//EN" "http://www.w3.org/Graphics/SVG/1.1/DTD/svg11.dtd"><svg xmlns="http://www.w3.org/2000/svg" version="1.1" width="1008px" height="584px" viewBox="0 -17 1008 584" style="top:-17px">  <desc>Unfix Your Thinking</desc>  <defs/>  <g id="Polygon13103">    <path d="M 23.3 408.6 L 34.7 404.2 L 34.7 328.5 L 23.1 328.5 L 6.8 348.3 L 1.2 348.3 L 2.7 321.4 L 88.4 321.4 L 89.9 348.3 L 84.3 348.3 L 68.1 328.5 L 56.4 328.5 L 56.4 406 L 67.8 408.1 L 67.8 414.4 L 23.3 414.4 L 23.3 408.6 Z M 93 408.6 L 102.5 405 L 102.5 334.4 L 93.2 330.1 L 93.2 326 L 121.1 319.9 L 121.1 360.6 C 121.1 360.6 133.05 349.68 133.1 349.7 C 135.5 348.9 138.3 348.4 141.1 348.4 C 151 348.4 161.2 354.4 161.2 370.3 C 161.2 370.26 161.2 406.5 161.2 406.5 L 170.7 408.1 L 170.7 414.4 L 134.7 414.4 L 134.7 408 L 142.6 405 C 142.6 405 142.6 374.48 142.6 374.5 C 142.6 366 138.8 362.5 133.9 362.5 C 129.8 362.5 125.1 364.9 121.1 369 C 121.15 369.02 121.1 406.5 121.1 406.5 L 129.1 407.8 L 129.1 414.4 L 93 414.4 L 93 408.6 Z M 181 328.2 C 181 320.9 186.1 316.1 193.4 316.1 C 200.8 316.1 205.8 320.9 205.8 328.2 C 205.8 335.5 200.8 340.4 193.4 340.4 C 186.1 340.4 181 335.5 181 328.2 Z M 175.7 408.6 L 185.3 405 L 185.3 362.9 L 176 358.6 L 176 354.5 L 203.9 348.4 L 203.9 406.5 L 213.4 408.1 L 213.4 414.4 L 175.7 414.4 L 175.7 408.6 Z M 218.4 408.6 L 227.9 405 L 227.9 362.5 L 218.6 358.1 L 218.6 354 L 244.3 348.4 L 244.3 362.6 C 244.3 362.6 258.41 349.68 258.4 349.7 C 260.9 348.9 263.6 348.4 266.5 348.4 C 276.4 348.4 286.6 354.4 286.6 370.3 C 286.56 370.26 286.6 406.5 286.6 406.5 L 296.1 408.1 L 296.1 414.4 L 260 414.4 L 260 408 L 268 405 C 268 405 267.96 374.48 268 374.5 C 268 366 264.1 362.5 259.3 362.5 C 255.2 362.5 250.5 364.9 246.5 369 C 246.51 369.02 246.5 406.5 246.5 406.5 L 254.4 407.8 L 254.4 414.4 L 218.4 414.4 L 218.4 408.6 Z M 299.2 408.6 L 308.8 405 L 308.8 334.4 L 299.5 330.1 L 299.5 326 L 327.4 319.9 L 327.4 406.5 L 336.9 408.1 L 336.9 414.4 L 299.2 414.4 L 299.2 408.6 Z M 352.3 414.4 L 327.5 380.8 L 351.8 358 L 341.1 355.5 L 341.1 349.7 L 373 349.7 L 373 356.3 L 363.6 357.9 L 346.2 374.4 L 373 408.6 L 373 414.4 L 352.3 414.4 Z M 382.7 328.2 C 382.7 320.9 387.7 316.1 395.1 316.1 C 402.4 316.1 407.5 320.9 407.5 328.2 C 407.5 335.5 402.4 340.4 395.1 340.4 C 387.7 340.4 382.7 335.5 382.7 328.2 Z M 377.3 408.6 L 386.9 405 L 386.9 362.9 L 377.6 358.6 L 377.6 354.5 L 405.5 348.4 L 405.5 406.5 L 415 408.1 L 415 414.4 L 377.3 414.4 L 377.3 408.6 Z M 420 408.6 L 429.5 405 L 429.5 362.5 L 420.2 358.1 L 420.2 354 L 445.9 348.4 L 445.9 362.6 C 445.9 362.6 460.03 349.68 460 349.7 C 462.5 348.9 465.2 348.4 468.1 348.4 C 478 348.4 488.2 354.4 488.2 370.3 C 488.18 370.26 488.2 406.5 488.2 406.5 L 497.7 408.1 L 497.7 414.4 L 461.6 414.4 L 461.6 408 L 469.6 405 C 469.6 405 469.58 374.48 469.6 374.5 C 469.6 366 465.7 362.5 460.9 362.5 C 456.8 362.5 452.1 364.9 448.1 369 C 448.13 369.02 448.1 406.5 448.1 406.5 L 456.1 407.8 L 456.1 414.4 L 420 414.4 L 420 408.6 Z M 556.9 358.2 C 561 362.9 563.2 368.8 563.2 374 C 563.2 387 549.6 395.1 535.1 395.1 C 530.8 395.1 526.7 394.3 523.1 393.2 C 520.2 394.3 518.8 396.7 518.8 399.2 C 518.8 402.3 521.2 405.2 525.6 405.2 C 525.6 405.2 552.5 405.2 552.5 405.2 C 565.6 405.2 572.4 413.3 572.4 422.7 C 572.4 439 552.3 446.4 532.7 446.4 C 514 446.4 502.1 439.6 502.1 431 C 502.1 429.5 502.4 428 503.1 426.6 C 503.1 426.6 517.4 417.6 517.4 417.6 C 509.6 415.4 505.9 409.6 505.9 403.9 C 505.9 398 510 392.2 518.1 390.7 C 511.4 386.8 506.9 380.3 506.9 371.8 C 506.9 358.2 517.9 348.4 533.6 348.4 C 537 348.4 540.1 348.9 543 349.7 C 542.99 349.68 572.4 349.7 572.4 349.7 L 572.4 359.4 C 572.4 359.4 556.88 358.23 556.9 358.2 Z M 545 372.7 C 545 363.8 542.1 355.1 534.6 355.1 C 527.2 355.1 525.1 363.2 525.1 370.5 C 525.1 379.4 528.2 387.9 535.8 387.9 C 543.1 387.9 545 380.1 545 372.7 Z M 518.4 428.7 C 518.4 433.6 522.7 438.7 534.9 438.7 C 546.1 438.7 555.6 434.5 555.6 427.4 C 555.6 423.1 552 420 545 420 C 545 420 522.7 420 522.7 420 C 520.2 422.3 518.4 425.6 518.4 428.7 Z M 588.9 392.7 C 595.3 392.7 600 397.4 600 403.9 C 600 410.3 595.3 415 588.9 415 C 582.7 415 578 410.3 578 403.9 C 578 397.4 582.7 392.7 588.9 392.7 Z " stroke="none" fill="#000"/>  </g>  <g id="Polygon13102">    <path d="M 29.3 259.8 L 40.7 255.4 L 40.7 231.8 L 10.8 183.1 L 0.6 178.9 L 0.6 172.6 L 46.3 172.6 L 46.3 179.4 L 33.6 181.4 L 54.3 222.1 L 74 183.1 L 61.4 178.9 L 61.4 172.6 L 95.6 172.6 L 95.6 179.4 L 85.4 181.4 L 62.4 227.7 L 62.4 257.2 L 73.8 259.3 L 73.8 265.6 L 29.3 265.6 L 29.3 259.8 Z M 152.6 233 C 152.6 252.1 140.2 267.1 119 267.1 C 97.7 267.1 86.3 251.8 86.3 233.5 C 86.3 214.5 98.6 199.6 119.9 199.6 C 141.1 199.6 152.6 214.5 152.6 233 Z M 131.6 235.2 C 131.6 217.7 127.2 206.3 118.7 206.3 C 111.1 206.3 107.4 215.3 107.4 231.4 C 107.4 248.9 111.7 260.4 120.3 260.4 C 127.8 260.4 131.6 251.3 131.6 235.2 Z M 223.3 252.5 L 232.1 254.1 L 232.1 259.8 L 207 267.1 L 207 253 C 207 253 192.82 265.85 192.8 265.9 C 191.3 266.6 189.3 267.1 187 267.1 C 178.7 267.1 167.2 261.3 167.2 244.5 C 167.15 244.53 167.2 210.1 167.2 210.1 L 157.6 207 L 157.6 200.9 L 185.8 200.9 C 185.8 200.9 185.75 240.31 185.8 240.3 C 185.8 248.4 189.8 252 194.6 252 C 198.2 252 202 249.9 204.7 246.3 C 204.72 246.26 204.7 210.1 204.7 210.1 L 195.3 207 L 195.3 200.9 L 223.3 200.9 L 223.3 252.5 Z M 236.5 259.8 L 246 256.2 L 246 213.7 L 236.7 209.3 L 236.7 205.2 L 262.4 199.6 L 262.4 215.9 C 262.4 215.9 277.26 200.26 277.3 200.3 C 281.7 200.3 287.7 201.3 291.3 203.2 C 291.3 203.2 286.4 221.7 286.4 221.7 C 283.2 219.6 279.6 218.5 276 218.5 C 271.8 218.5 267.8 219.9 264.6 222.2 C 264.61 222.21 264.6 257.7 264.6 257.7 L 274.2 259.3 L 274.2 265.6 L 236.5 265.6 L 236.5 259.8 Z " stroke="none" fill="#000"/>  </g>  <g id="Polygon13101">    <path d="M 12.6 81 C 12.65 80.97 12.6 32.2 12.6 32.2 L 1.2 30.1 L 1.2 23.8 L 45.8 23.8 L 45.8 29.6 L 34.3 34 C 34.3 34 34.35 85.06 34.3 85.1 C 34.3 102.2 45.4 109.9 56.7 109.9 C 68 109.9 80.1 102.1 80.1 87.8 C 80.1 87.79 80.1 32.2 80.1 32.2 L 68.7 30.1 L 68.7 23.8 L 101.8 23.8 L 101.8 29.6 L 90.4 34 C 90.4 34 90.4 84.69 90.4 84.7 C 90.4 107.4 71.9 119.2 52.8 119.2 C 32.9 119.2 12.6 106.6 12.6 81 Z M 104.9 111 L 114.5 107.4 L 114.5 64.9 L 105.2 60.5 L 105.2 56.4 L 130.8 50.8 L 130.8 65 C 130.8 65 144.96 52.08 145 52.1 C 147.4 51.3 150.2 50.8 153 50.8 C 162.9 50.8 173.1 56.8 173.1 72.7 C 173.1 72.66 173.1 108.9 173.1 108.9 L 182.7 110.5 L 182.7 116.8 L 146.6 116.8 L 146.6 110.4 L 154.5 107.4 C 154.5 107.4 154.5 76.88 154.5 76.9 C 154.5 68.4 150.7 64.9 145.8 64.9 C 141.7 64.9 137 67.3 133.1 71.4 C 133.05 71.42 133.1 108.9 133.1 108.9 L 141 110.2 L 141 116.8 L 104.9 116.8 L 104.9 111 Z M 232.7 116.8 L 232.7 111 L 241.1 107.4 L 241.1 60.4 L 217.1 60.4 L 217.1 108.9 L 226.7 110.5 L 226.7 116.8 L 189 116.8 L 189 111 L 198.5 107.4 L 198.5 59.8 L 185.8 59.8 L 185.8 53.8 L 198.5 50 C 198.5 50 198.52 44.27 198.5 44.3 C 198.5 26.5 212.5 18.6 228 18.6 C 236 18.6 244.2 20.7 251.2 24.6 C 251.22 24.55 245.5 41.4 245.5 41.4 C 245.5 41.4 238.08 41.41 238.1 41.4 C 237.8 30.5 232.4 25.5 227.2 25.5 C 222.1 25.5 217.1 30.4 217.1 39.2 C 217.12 39.18 217.1 52.1 217.1 52.1 L 259.7 52.1 L 259.7 108.9 L 269.2 110.5 L 269.2 116.8 L 232.7 116.8 Z M 350.9 111.2 L 350.9 116.8 L 313 116.8 L 313 110.7 L 321 109.4 L 307 92.3 L 294.1 108 L 303.8 111.2 L 303.8 116.8 L 272.7 116.8 L 272.7 110.7 L 282.1 109.1 L 301.9 85.9 L 281.9 61.3 L 272.3 57.7 L 272.3 52.1 L 310 52.1 L 310 58.3 L 302.1 59.5 L 315.8 76.4 L 328.1 61.4 L 318.7 58 L 318.7 52.1 L 349.6 52.1 L 349.6 58.2 L 340.1 59.8 L 321 82.7 L 341.4 107.6 L 350.9 111.2 Z " stroke="none" fill="#000"/>  </g></svg>
